X:1
T:Title
%%score { ( 1 3 ) | ( 2 4 ) }
L:1/8
M:6/8
K:C
V:1 treble nm="Grand Piano"
V:3 treble 
V:2 bass 
V:4 bass 
V:1
 z6[Q:1/4=104] | z3 .G3 | z [EG]2- [EG]2 z | BAG [DF]AG | E6 | z3 .G3 | z [EG]2- [EG]2 z | %7
 DDE ^FGA | B6 |[M:4/4][Q:1/4=100] [Ec]2 [Ec]2 [GB]2 [GB]2 | [FA]>A [GB]>A [EG]2 [G,CEG]2 | %11
 [GB]2 [A,B,FA]2 [DF]2 [FA]B | [FA]2 [G,CEG]2 [G,CE]2 z2 | z4 z2 .G2 |[M:9/8] BA,B F, [Gc]2 z c2 | %15
[M:4/4] .c2 A2 .G2 CD |[M:7/8] E2 [B,D]2 [G,C]3 |] %17
V:2
 z3 z2 E | C,E,E, D,[F,G,][F,G,] | C,E,E, C,[E,G,][E,G,CE] | %3
 [D,D][F,A,B,][F,A,B,] G,,[F,G,B,F][F,G,B,] | C,E,G, C2 E | C,E,E, D,[F,G,][F,G,] | C,E,E, C,E,E, | %7
 D,[G,B,][G,B,] D,[A,CD][A,CD] | [G,B,D]A,G, F,E,D, |[M:4/4] C,2 [E,G,C]2 C,2 [E,G,C]2 | %10
 z z/[K:treble] F/ z z/ F/[K:bass] C,2 z z/[K:treble] c/ | z4 z2 [F,A,B,]2 | %12
 C,2 E,2 E,2[K:treble] GG | D,2 D,2 [D,A,]2 E,^F, | %14
[M:9/8][K:treble] .[G,DG]2 [G,DG] z [E,C]2 z [EG_B]2 | %15
[M:4/4] .[F,A,F]2[K:bass] [F,CF]2 .[E,C]2 [F,A,]2 |[M:7/8] [G,C]2 [G,,F,G,]2 [C,E,]3 |] %17
V:3
 x6 | [EG][G,CEG][G,CEG] F-[B,F-A][B,FB] | [Ec][G,C][G,C] z Cc | x6 | x6 | %5
 [EG][G,CEG][G,CEG] F-[B,F-A][B,FB] | [Ec][G,C][G,C] z [G,C][G,CE] | x6 | x6 |[M:4/4] x8 | x8 | %11
 x8 | x8 | [A,D^F]2 [CFA]2 [Fd]2 [Dc]-[DAc] |[M:9/8] x9 |[M:4/4] x8 |[M:7/8] x7 |] %17
V:4
 x6 | x6 | x6 | x6 | x6 | x6 | x6 | x6 | x6 |[M:4/4] x8 | %10
 C,2[K:treble] [F,A,D]2[K:bass] z2 E,2[K:treble] | D,2 F,2 G,,2 z G | x6[K:treble] x2 | x8 | %14
[M:9/8][K:treble] x9 |[M:4/4] x2[K:bass] x6 |[M:7/8] x7 |] %17

